;FLAVOR:UltiGCode
;TIME:3009
;MATERIAL:5497
;MATERIAL2:0
;NOZZLE_DIAMETER:0.4
;MINX:88.985
;MINY:88.984
;MINZ:0.27
;MAXX:134.013
;MAXY:134.013
;MAXZ:62.82
;Generated with Cura_SteamEngine 4.4.1
M82 ;absolute extrusion mode

G92 E0
G92 E0
G10
;LAYER_COUNT:419
;LAYER:0
M107
G0 F4500 X95.644 Y95.512 Z0.27
;TYPE:SKIRT
G11
G1 F1800 X95.979 Y95.207 E0.04281
G1 X97.723 Y93.709 E0.26007
G1 X98.35 Y93.223 E0.33504
G1 X98.716 Y92.983 E0.3764
G1 X100.675 Y91.773 E0.59399
G1 X101.37 Y91.391 E0.66893
G1 X101.778 Y91.206 E0.71127
G1 X103.897 Y90.321 E0.92828
G1 X104.644 Y90.053 E1.00327
G1 X105.071 Y89.936 E1.04511
G1 X107.304 Y89.393 E1.26228
G1 X108.084 Y89.245 E1.33731
G1 X108.525 Y89.196 E1.37924
G1 X110.819 Y89.009 E1.59674
G1 X111.612 Y88.984 E1.67171
G1 X112.045 Y89.005 E1.71268
G1 X114.338 Y89.176 E1.92997
G1 X115.125 Y89.275 E2.00493
G1 X115.574 Y89.368 E2.04826
G1 X117.807 Y89.899 E2.26516
G1 X118.569 Y90.121 E2.34017
G1 X118.977 Y90.276 E2.38141
G1 X121.107 Y91.151 E2.59902
G1 X121.825 Y91.489 E2.67401
G1 X122.214 Y91.711 E2.71634
G1 X124.174 Y92.906 E2.93327
G1 X124.83 Y93.353 E3.00828
G1 X125.171 Y93.626 E3.04956
G1 X126.924 Y95.114 E3.26685
G1 X127.502 Y95.658 E3.34186
G1 X127.806 Y95.992 E3.38454
G1 X129.298 Y97.732 E3.60114
G1 X129.784 Y98.359 E3.67611
G1 X130.022 Y98.723 E3.71721
G1 X131.227 Y100.676 E3.93407
G1 X131.609 Y101.371 E4.00901
G1 X131.79 Y101.772 E4.05059
G1 X132.673 Y103.883 E4.26683
G1 X132.942 Y104.63 E4.34186
G1 X133.059 Y105.057 E4.3837
G1 X133.602 Y107.284 E4.60031
G1 X133.751 Y108.063 E4.67526
G1 X133.799 Y108.503 E4.71709
G1 X133.987 Y110.787 E4.93366
G1 X134.013 Y111.58 E5.00864
G1 X133.993 Y112.009 E5.04922
G1 X133.82 Y114.367 E5.27265
G1 X133.722 Y115.155 E5.34769
G1 X133.624 Y115.628 E5.39334
G1 X133.089 Y117.858 E5.61005
G1 X132.865 Y118.619 E5.68502
G1 X132.708 Y119.031 E5.72668
G1 X131.829 Y121.156 E5.944
G1 X131.489 Y121.873 E6.01899
G1 X131.265 Y122.263 E6.06149
G1 X130.063 Y124.223 E6.27876
G1 X129.615 Y124.878 E6.35376
G1 X129.34 Y125.219 E6.39515
G1 X127.894 Y126.913 E6.60563
G1 X127.349 Y127.49 E6.68063
G1 X127.046 Y127.764 E6.71923
G1 X125.305 Y129.265 E6.93646
G1 X124.679 Y129.753 E7.01147
G1 X124.309 Y129.996 E7.0533
G1 X122.352 Y131.208 E7.27083
G1 X121.658 Y131.591 E7.34574
G1 X121.252 Y131.775 E7.38786
G1 X119.135 Y132.663 E7.60481
G1 X118.389 Y132.933 E7.67978
G1 X117.967 Y133.049 E7.72114
G1 X115.735 Y133.597 E7.93833
G1 X114.956 Y133.747 E8.01329
G1 X114.508 Y133.797 E8.05589
G1 X112.216 Y133.987 E8.27323
G1 X111.423 Y134.013 E8.34821
G1 X110.99 Y133.993 E8.38917
G1 X108.696 Y133.825 E8.60653
G1 X107.908 Y133.727 E8.68157
G1 X107.465 Y133.636 E8.72431
G1 X105.232 Y133.11 E8.94111
G1 X104.47 Y132.89 E9.01606
G1 X104.056 Y132.733 E9.0579
G1 X101.925 Y131.861 E9.27548
G1 X101.206 Y131.524 E9.35052
G1 X100.82 Y131.304 E9.39251
G1 X98.857 Y130.112 E9.60953
G1 X98.2 Y129.667 E9.68452
G1 X97.857 Y129.392 E9.72607
G1 X96.101 Y127.906 E9.94345
G1 X95.522 Y127.364 E10.0184
G1 X95.217 Y127.029 E10.06121
G1 X93.72 Y125.288 E10.2782
G1 X93.233 Y124.661 E10.35322
G1 X92.994 Y124.298 E10.39429
G1 X91.783 Y122.341 E10.61177
G1 X91.4 Y121.646 E10.68676
G1 X91.216 Y121.239 E10.72897
G1 X90.328 Y119.119 E10.94618
G1 X90.059 Y118.373 E11.02112
G1 X89.941 Y117.943 E11.06325
G1 X89.397 Y115.712 E11.28026
G1 X89.248 Y114.932 E11.3553
G1 X89.2 Y114.493 E11.39704
G1 X89.011 Y112.202 E11.61427
G1 X88.985 Y111.409 E11.68925
G1 X89.006 Y110.973 E11.7305
G1 X89.176 Y108.678 E11.94797
G1 X89.274 Y107.891 E12.02292
G1 X89.365 Y107.449 E12.06556
G1 X89.893 Y105.215 E12.28249
G1 X90.114 Y104.453 E12.35747
G1 X90.271 Y104.037 E12.39949
G1 X91.145 Y101.907 E12.61706
G1 X91.483 Y101.189 E12.69205
G1 X91.703 Y100.803 E12.73404
G1 X92.896 Y98.842 E12.95095
G1 X93.342 Y98.186 E13.02591
G1 X93.615 Y97.845 E13.06719
G1 X95.101 Y96.091 E13.28443
G1 X95.644 Y95.512 E13.35945
G0 F4500 X95.9 Y95.752
G1 F1800 X96.207 Y95.473 E13.39865
G1 X97.951 Y93.975 E13.61591
G1 X98.565 Y93.5 E13.68926
G1 X98.9 Y93.281 E13.72709
G1 X100.859 Y92.071 E13.94468
G1 X101.539 Y91.698 E14.01797
G1 X101.913 Y91.529 E14.05676
G1 X104.032 Y90.644 E14.27376
G1 X104.762 Y90.383 E14.34703
G1 X105.154 Y90.276 E14.38542
G1 X107.387 Y89.733 E14.60259
G1 X108.149 Y89.589 E14.67588
G1 X108.554 Y89.545 E14.71437
G1 X110.848 Y89.358 E14.93188
G1 X111.623 Y89.335 E15.00515
G1 X112.019 Y89.354 E15.04261
G1 X114.312 Y89.525 E15.2599
G1 X115.081 Y89.622 E15.33315
G1 X115.493 Y89.708 E15.37292
G1 X117.726 Y90.239 E15.58982
G1 X118.47 Y90.457 E15.66309
G1 X118.844 Y90.599 E15.70089
G1 X120.974 Y91.474 E15.9185
G1 X121.676 Y91.806 E15.99188
G1 X122.032 Y92.01 E16.03066
G1 X123.992 Y93.205 E16.24759
G1 X124.633 Y93.642 E16.3209
G1 X124.945 Y93.893 E16.35874
G1 X126.698 Y95.381 E16.57603
G1 X127.262 Y95.913 E16.6493
G1 X127.54 Y96.22 E16.68844
G1 X129.032 Y97.96 E16.90504
G1 X129.506 Y98.574 E16.97834
G1 X129.724 Y98.907 E17.01595
G1 X130.929 Y100.86 E17.23282
G1 X131.302 Y101.54 E17.30611
G1 X131.467 Y101.907 E17.34413
G1 X132.35 Y104.018 E17.56037
G1 X132.612 Y104.748 E17.63366
G1 X132.719 Y105.139 E17.67197
G1 X133.262 Y107.366 E17.88859
G1 X133.406 Y108.128 E17.96187
G1 X133.451 Y108.532 E18.00029
G1 X133.639 Y110.816 E18.21686
G1 X133.662 Y111.591 E18.29012
G1 X133.644 Y111.984 E18.3273
G1 X133.471 Y114.342 E18.55073
G1 X133.374 Y115.111 E18.62398
G1 X133.283 Y115.547 E18.66607
G1 X132.748 Y117.777 E18.88278
G1 X132.529 Y118.52 E18.95598
G1 X132.385 Y118.897 E18.99412
G1 X131.506 Y121.022 E19.21143
G1 X131.173 Y121.723 E19.28477
G1 X130.967 Y122.08 E19.32372
G1 X129.765 Y124.04 E19.541
G1 X129.326 Y124.679 E19.61426
G1 X129.073 Y124.992 E19.6523
G1 X127.627 Y126.686 E19.86277
G1 X126.818 Y127.499 E19.97115
G1 X125.077 Y129 E20.18838
G1 X124.464 Y129.476 E20.26172
G1 X124.125 Y129.698 E20.30002
G1 X122.168 Y130.91 E20.51755
G1 X121.488 Y131.284 E20.59089
G1 X121.117 Y131.452 E20.62937
G1 X119 Y132.34 E20.84632
G1 X118.27 Y132.603 E20.91964
G1 X117.883 Y132.709 E20.95756
G1 X115.651 Y133.257 E21.17475
G1 X114.889 Y133.403 E21.24807
G1 X114.479 Y133.448 E21.28705
G1 X112.187 Y133.638 E21.50438
G1 X111.411 Y133.662 E21.57775
G1 X111.015 Y133.644 E21.61521
G1 X108.721 Y133.476 E21.83257
G1 X107.952 Y133.379 E21.90582
G1 X107.546 Y133.296 E21.94498
G1 X105.313 Y132.77 E22.16177
G1 X104.568 Y132.553 E22.2351
G1 X104.188 Y132.409 E22.2735
G1 X102.057 Y131.537 E22.49109
G1 X101.355 Y131.207 E22.56439
G1 X101.001 Y131.005 E22.60291
G1 X99.038 Y129.813 E22.81994
G1 X98.397 Y129.377 E22.8932
G1 X98.083 Y129.125 E22.93124
G1 X96.327 Y127.639 E23.14863
G1 X95.762 Y127.108 E23.2219
G1 X95.482 Y126.801 E23.26117
G1 X93.985 Y125.06 E23.47815
G1 X93.511 Y124.447 E23.55137
G1 X93.292 Y124.114 E23.58904
G1 X92.081 Y122.157 E23.80652
G1 X91.707 Y121.477 E23.87986
G1 X91.539 Y121.104 E23.91852
G1 X90.651 Y118.984 E24.13572
G1 X90.389 Y118.254 E24.20901
G1 X90.281 Y117.86 E24.24762
G1 X89.737 Y115.629 E24.46463
G1 X89.593 Y114.867 E24.53791
G1 X89.548 Y114.465 E24.57614
G1 X89.359 Y112.174 E24.79337
G1 X89.336 Y111.398 E24.86674
G1 X89.355 Y110.999 E24.90448
G1 X89.525 Y108.704 E25.12196
G1 X89.622 Y107.935 E25.1952
G1 X89.706 Y107.529 E25.23438
G1 X90.234 Y105.295 E25.45131
G1 X90.451 Y104.551 E25.52455
G1 X90.595 Y104.169 E25.56313
G1 X91.469 Y102.039 E25.7807
G1 X91.8 Y101.338 E25.85396
G1 X92.002 Y100.985 E25.89239
G1 X93.195 Y99.024 E26.1093
G1 X93.632 Y98.383 E26.18262
G1 X93.882 Y98.071 E26.2204
G1 X95.368 Y96.317 E26.43764
G1 X95.9 Y95.752 E26.51098
G0 F4500 X96.435 Y95.738
G1 F1800 X98.179 Y94.24 E26.72823
G1 X99.084 Y93.579 E26.83414
G1 X101.043 Y92.369 E27.05173
G1 X102.048 Y91.852 E27.15853
G1 X104.167 Y90.967 E27.37554
G1 X105.237 Y90.616 E27.48196
G1 X107.47 Y90.073 E27.69913
G1 X108.582 Y89.894 E27.80556
G1 X110.876 Y89.707 E28.02307
G1 X111.993 Y89.703 E28.12862
G1 X114.286 Y89.874 E28.34591
G1 X115.037 Y89.97 E28.41746
G1 X115.412 Y90.049 E28.45368
G1 X117.645 Y90.58 E28.67058
G1 X118.711 Y90.923 E28.7764
G1 X120.841 Y91.798 E28.99401
G1 X121.85 Y92.309 E29.10089
G1 X123.81 Y93.504 E29.31782
G1 X124.718 Y94.16 E29.42368
G1 X126.471 Y95.648 E29.64097
G1 X127.275 Y96.448 E29.74815
G1 X128.767 Y98.188 E29.96475
G1 X129.426 Y99.09 E30.07032
G1 X130.631 Y101.043 E30.28718
G1 X131.144 Y102.042 E30.3933
G1 X132.027 Y104.153 E30.60954
G1 X132.379 Y105.222 E30.7159
G1 X132.922 Y107.449 E30.93252
G1 X133.102 Y108.56 E31.03887
G1 X133.29 Y110.844 E31.25544
G1 X133.295 Y111.958 E31.36072
G1 X133.122 Y114.316 E31.58415
G1 X133.027 Y115.067 E31.65568
G1 X132.943 Y115.465 E31.69412
G1 X132.408 Y117.695 E31.91084
G1 X132.061 Y118.764 E32.01704
G1 X131.182 Y120.889 E32.23436
G1 X130.668 Y121.897 E32.34128
G1 X129.466 Y123.857 E32.55856
G1 X128.807 Y124.764 E32.66451
G1 X127.361 Y126.458 E32.87498
G1 X126.589 Y127.234 E32.97842
G1 X124.848 Y128.735 E33.19565
G1 X123.941 Y129.401 E33.30199
G1 X121.984 Y130.613 E33.51952
G1 X120.981 Y131.129 E33.62611
G1 X118.864 Y132.017 E33.84305
G1 X117.8 Y132.369 E33.94896
G1 X115.568 Y132.917 E34.16615
G1 X114.45 Y133.099 E34.27319
G1 X112.158 Y133.289 E34.49053
G1 X111.041 Y133.295 E34.59608
G1 X108.747 Y133.127 E34.81345
G1 X107.626 Y132.955 E34.92062
G1 X105.393 Y132.429 E35.13742
G1 X104.321 Y132.086 E35.24378
G1 X102.19 Y131.214 E35.46137
G1 X101.183 Y130.706 E35.56795
G1 X99.22 Y129.514 E35.78498
G1 X98.309 Y128.858 E35.89106
G1 X96.553 Y127.372 E36.10845
G1 X95.748 Y126.573 E36.21563
G1 X94.251 Y124.832 E36.43261
G1 X93.59 Y123.93 E36.53829
G1 X92.379 Y121.973 E36.75577
G1 X91.862 Y120.969 E36.86249
G1 X90.974 Y118.849 E37.07969
G1 X90.621 Y117.777 E37.18635
G1 X90.077 Y115.546 E37.40335
G1 X89.897 Y114.436 E37.50962
G1 X89.708 Y112.145 E37.72686
G1 X89.704 Y111.025 E37.8327
G1 X89.874 Y108.73 E38.05017
G1 X90.046 Y107.61 E38.15725
G1 X90.574 Y105.376 E38.37418
G1 X90.919 Y104.302 E38.48078
G1 X91.793 Y102.172 E38.69835
G1 X92.301 Y101.167 E38.80477
G1 X93.494 Y99.206 E39.02168
G1 X94.15 Y98.297 E39.12761
G1 X95.636 Y96.543 E39.34485
G1 X96.435 Y95.738 E39.45204
G0 F4500 X96.663 Y96.004
G1 F1800 X98.407 Y94.506 E39.66929
G1 X99.267 Y93.876 E39.77004
G1 X101.226 Y92.666 E39.98763
G1 X102.183 Y92.175 E40.08927
G1 X104.302 Y91.29 E40.30628
G1 X105.319 Y90.956 E40.40744
G1 X107.552 Y90.413 E40.62461
G1 X108.61 Y90.243 E40.72587
G1 X110.904 Y90.056 E40.94337
G1 X111.967 Y90.052 E41.04383
G1 X114.26 Y90.223 E41.26112
G1 X115.331 Y90.389 E41.36354
G1 X117.564 Y90.92 E41.58044
G1 X118.578 Y91.247 E41.68112
G1 X120.708 Y92.122 E41.89873
G1 X121.668 Y92.608 E42.00041
G1 X123.628 Y93.803 E42.21734
G1 X124.492 Y94.427 E42.31806
G1 X126.245 Y95.915 E42.53535
G1 X127.009 Y96.675 E42.63719
G1 X128.501 Y98.415 E42.85379
G1 X129.128 Y99.274 E42.95429
G1 X130.333 Y101.227 E43.17115
G1 X130.821 Y102.177 E43.27208
G1 X131.704 Y104.288 E43.48831
G1 X132.039 Y105.305 E43.5895
G1 X132.582 Y107.532 E43.80612
G1 X132.753 Y108.589 E43.9073
G1 X132.941 Y110.873 E44.12387
G1 X132.946 Y111.932 E44.22395
G1 X132.773 Y114.29 E44.44738
G1 X132.603 Y115.383 E44.55191
G1 X132.068 Y117.613 E44.76862
G1 X131.738 Y118.63 E44.86966
G1 X130.859 Y120.755 E45.08698
G1 X130.37 Y121.714 E45.1887
G1 X129.168 Y123.674 E45.40598
G1 X128.541 Y124.537 E45.50678
G1 X127.095 Y126.231 E45.71726
G1 X126.361 Y126.969 E45.81562
G1 X124.62 Y128.47 E46.03285
G1 X123.756 Y129.103 E46.13406
G1 X121.799 Y130.315 E46.35159
G1 X120.846 Y130.807 E46.45295
G1 X118.729 Y131.695 E46.66989
G1 X117.716 Y132.029 E46.77069
G1 X115.484 Y132.577 E46.98788
G1 X114.421 Y132.751 E47.08967
G1 X112.129 Y132.941 E47.307
G1 X111.067 Y132.946 E47.40736
G1 X108.773 Y132.778 E47.62473
G1 X107.706 Y132.614 E47.72674
G1 X105.473 Y132.088 E47.94354
G1 X104.453 Y131.762 E48.04473
G1 X102.322 Y130.89 E48.26232
G1 X101.365 Y130.407 E48.36362
G1 X99.402 Y129.215 E48.58064
G1 X98.535 Y128.591 E48.68159
G1 X96.779 Y127.105 E48.89898
G1 X96.013 Y126.345 E49.00095
G1 X94.516 Y124.604 E49.21793
G1 X93.887 Y123.745 E49.31854
G1 X92.676 Y121.788 E49.53602
G1 X92.185 Y120.834 E49.63741
G1 X91.297 Y118.714 E49.85462
G1 X90.961 Y117.694 E49.9561
G1 X90.417 Y115.463 E50.17311
G1 X90.246 Y114.407 E50.2742
G1 X90.057 Y112.116 E50.49144
G1 X90.053 Y111.051 E50.59208
G1 X90.223 Y108.756 E50.80955
G1 X90.387 Y107.69 E50.91147
G1 X90.915 Y105.456 E51.1284
G1 X91.243 Y104.435 E51.22974
G1 X92.117 Y102.305 E51.44731
G1 X92.6 Y101.349 E51.54853
G1 X93.793 Y99.388 E51.76545
G1 X94.417 Y98.523 E51.86624
G1 X95.903 Y96.769 E52.08348
G1 X96.663 Y96.004 E52.18538
G0 F4500 X96.891 Y96.269
G1 F1800 X98.635 Y94.771 E52.40264
G1 X99.451 Y94.174 E52.49819
G1 X101.41 Y92.964 E52.71578
G1 X102.318 Y92.498 E52.81223
G1 X104.437 Y91.613 E53.02923
G1 X105.402 Y91.296 E53.12522
G1 X107.635 Y90.753 E53.34239
G1 X108.639 Y90.591 E53.43849
G1 X110.933 Y90.404 E53.656
G1 X111.941 Y90.401 E53.75125
G1 X114.234 Y90.572 E53.96854
G1 X115.25 Y90.73 E54.06571
G1 X117.483 Y91.261 E54.28261
G1 X118.445 Y91.571 E54.37812
G1 X120.575 Y92.446 E54.59573
G1 X121.486 Y92.907 E54.69222
G1 X123.446 Y94.102 E54.90915
G1 X124.265 Y94.694 E55.00464
G1 X126.018 Y96.182 E55.22194
G1 X126.743 Y96.903 E55.31856
G1 X128.235 Y98.643 E55.53516
G1 X128.831 Y99.458 E55.63058
G1 X130.036 Y101.411 E55.84744
G1 X130.498 Y102.312 E55.94312
G1 X131.381 Y104.423 E56.15936
G1 X131.699 Y105.388 E56.25538
G1 X132.242 Y107.615 E56.47199
G1 X132.404 Y108.618 E56.56801
G1 X132.592 Y110.902 E56.78457
G1 X132.597 Y111.907 E56.87955
G1 X132.424 Y114.265 E57.10298
G1 X132.262 Y115.302 E57.20216
G1 X131.727 Y117.532 E57.41888
G1 X131.414 Y118.496 E57.51466
G1 X130.535 Y120.621 E57.73197
G1 X130.072 Y121.531 E57.82846
G1 X128.87 Y123.491 E58.04573
G1 X128.275 Y124.31 E58.1414
G1 X126.829 Y126.004 E58.35187
G1 X126.132 Y126.704 E58.44522
G1 X124.391 Y128.205 E58.66245
G1 X123.572 Y128.806 E58.75845
G1 X121.615 Y130.018 E58.97598
G1 X120.711 Y130.484 E59.07209
G1 X118.594 Y131.372 E59.28903
G1 X117.633 Y131.689 E59.38466
G1 X115.401 Y132.237 E59.60185
G1 X114.392 Y132.402 E59.69846
G1 X112.1 Y132.592 E59.9158
G1 X111.092 Y132.597 E60.01106
G1 X108.798 Y132.429 E60.22842
G1 X107.786 Y132.274 E60.32517
G1 X105.553 Y131.748 E60.54197
G1 X104.586 Y131.438 E60.63793
G1 X102.455 Y130.566 E60.85551
G1 X101.546 Y130.108 E60.9517
G1 X99.583 Y128.916 E61.16873
G1 X98.761 Y128.324 E61.26446
G1 X97.005 Y126.838 E61.48184
G1 X96.278 Y126.117 E61.5786
G1 X94.781 Y124.376 E61.79558
G1 X94.185 Y123.561 E61.891
G1 X92.974 Y121.604 E62.10848
G1 X92.508 Y120.699 E62.20467
G1 X91.62 Y118.579 E62.42188
G1 X91.301 Y117.611 E62.51819
G1 X90.757 Y115.38 E62.7352
G1 X90.595 Y114.378 E62.83112
G1 X90.406 Y112.087 E63.04835
G1 X90.402 Y111.077 E63.1438
G1 X90.572 Y108.782 E63.36127
G1 X90.728 Y107.771 E63.45794
G1 X91.256 Y105.537 E63.67487
G1 X91.567 Y104.568 E63.77104
G1 X92.441 Y102.438 E63.98861
G1 X92.899 Y101.531 E64.08463
G1 X94.092 Y99.57 E64.30154
G1 X94.684 Y98.749 E64.39719
G1 X96.17 Y96.995 E64.61444
G1 X96.891 Y96.269 E64.71113
G0 F4500 X97.119 Y96.535
G1 F1800 X98.863 Y95.037 E64.92839
G1 X99.635 Y94.472 E65.01879
G1 X101.594 Y93.262 E65.23638
G1 X102.452 Y92.821 E65.32755
G1 X104.571 Y91.936 E65.54455
G1 X105.485 Y91.636 E65.63546
G1 X107.718 Y91.093 E65.85263
G1 X108.667 Y90.94 E65.94347
G1 X110.961 Y90.753 E66.16097
G1 X111.915 Y90.75 E66.25112
G1 X114.208 Y90.921 E66.46841
G1 X115.169 Y91.07 E66.56031
G1 X117.402 Y91.601 E66.77722
G1 X118.312 Y91.894 E66.86756
G1 X120.442 Y92.769 E67.08517
G1 X121.303 Y93.205 E67.17637
G1 X123.263 Y94.4 E67.3933
G1 X124.039 Y94.96 E67.48373
G1 X125.792 Y96.448 E67.70102
G1 X126.478 Y97.131 E67.7925
G1 X127.97 Y98.871 E68.0091
G1 X128.533 Y99.642 E68.09932
G1 X129.738 Y101.595 E68.31618
G1 X130.176 Y102.447 E68.40671
G1 X131.059 Y104.558 E68.62295
G1 X131.359 Y105.471 E68.71377
G1 X131.902 Y107.698 E68.93038
G1 X132.055 Y108.647 E69.02122
G1 X132.243 Y110.931 E69.23779
G1 X132.248 Y111.881 E69.32757
G1 X132.075 Y114.239 E69.551
G1 X131.922 Y115.22 E69.64482
G1 X131.387 Y117.45 E69.86154
G1 X131.091 Y118.362 E69.95215
G1 X130.212 Y120.487 E70.16946
G1 X129.773 Y121.348 E70.26079
G1 X128.571 Y123.308 E70.47807
G1 X128.009 Y124.083 E70.56853
