;FLAVOR:UltiGCode
;TIME:3205
;MATERIAL:6792
;MATERIAL2:0
;NOZZLE_DIAMETER:0.4
;MINX:89.742
;MINY:89.77
;MINZ:0.27
;MAXX:133.258
;MAXY:133.23
;MAXZ:59.97
;Generated with Cura_SteamEngine 4.7.0
M82 ;absolute extrusion mode
G0 F3000 Y50 ;avoid prime blob
G92 E0
G92 E0
G10
;LAYER_COUNT:399
;LAYER:0
M107
G0 F4500 X95.989 Y96.256 Z0.27
;TYPE:SKIRT
G11
G1 F1800 X97.262 Y95.061 E0.165
G1 X98.02 Y94.434 E0.25796
G1 X99.428 Y93.41 E0.42248
G1 X100.27 Y92.876 E0.5167
G1 X101.8 Y92.036 E0.68165
G1 X102.69 Y91.617 E0.77461
G1 X104.311 Y90.975 E0.93937
G1 X105.248 Y90.671 E1.03246
G1 X106.934 Y90.237 E1.19698
G1 X107.914 Y90.05 E1.29126
G1 X109.646 Y89.832 E1.45622
G1 X110.629 Y89.77 E1.5493
G1 X112.371 Y89.77 E1.71392
G1 X113.354 Y89.832 E1.807
G1 X115.086 Y90.05 E1.97197
G1 X116.066 Y90.237 E2.06625
G1 X117.752 Y90.671 E2.23077
G1 X118.689 Y90.975 E2.32386
G1 X120.31 Y91.617 E2.48862
G1 X121.2 Y92.036 E2.58158
G1 X122.73 Y92.876 E2.74652
G1 X123.572 Y93.41 E2.84074
G1 X124.98 Y94.434 E3.00527
G1 X125.738 Y95.061 E3.09823
G1 X127.011 Y96.256 E3.26322
G1 X127.69 Y96.979 E3.35695
G1 X128.799 Y98.32 E3.5214
G1 X129.375 Y99.113 E3.61402
G1 X130.311 Y100.585 E3.77886
G1 X130.792 Y101.458 E3.87306
G1 X131.534 Y103.035 E4.03776
G1 X131.899 Y103.959 E4.13164
G1 X132.437 Y105.618 E4.29645
G1 X132.681 Y106.571 E4.38942
G1 X133.008 Y108.285 E4.55431
G1 X133.133 Y109.269 E4.64805
G1 X133.24 Y110.978 E4.80986
G1 X133.231 Y110.979 E4.81072
G1 X133.258 Y111.481 E4.85823
G1 X133.243 Y111.991 E4.90644
G1 X133.136 Y113.702 E5.06845
G1 X133.106 Y114.049 E5.10136
G1 X133.008 Y114.715 E5.16497
G1 X132.681 Y116.429 E5.32987
G1 X132.437 Y117.382 E5.42283
G1 X131.9 Y119.038 E5.58735
G1 X131.535 Y119.96 E5.68106
G1 X130.793 Y121.538 E5.84584
G1 X130.313 Y122.412 E5.94007
G1 X129.376 Y123.886 E6.10512
G1 X128.799 Y124.68 E6.19788
G1 X127.69 Y126.021 E6.36232
G1 X127.011 Y126.744 E6.45605
G1 X125.738 Y127.939 E6.62105
G1 X124.98 Y128.566 E6.71401
G1 X123.572 Y129.59 E6.87853
G1 X122.73 Y130.124 E6.97276
G1 X121.2 Y130.964 E7.1377
G1 X120.31 Y131.383 E7.23066
G1 X118.689 Y132.025 E7.39542
G1 X117.752 Y132.329 E7.48851
G1 X116.066 Y132.763 E7.65303
G1 X115.086 Y132.95 E7.74731
G1 X113.354 Y133.168 E7.91228
G1 X112.371 Y133.23 E8.00535
G1 X110.629 Y133.23 E8.16997
G1 X109.646 Y133.168 E8.26305
G1 X107.914 Y132.95 E8.42802
G1 X106.934 Y132.763 E8.5223
G1 X105.248 Y132.329 E8.68682
G1 X104.311 Y132.025 E8.77991
G1 X102.69 Y131.383 E8.94467
G1 X101.8 Y130.964 E9.03763
G1 X100.27 Y130.124 E9.20257
G1 X99.428 Y129.59 E9.29679
G1 X98.02 Y128.566 E9.46132
G1 X97.262 Y127.939 E9.55428
G1 X95.989 Y126.744 E9.71928
G1 X95.31 Y126.021 E9.81301
G1 X94.201 Y124.68 E9.97745
G1 X93.624 Y123.886 E10.0702
G1 X92.687 Y122.412 E10.23526
G1 X92.207 Y121.538 E10.32949
G1 X91.465 Y119.96 E10.49427
G1 X91.1 Y119.038 E10.58798
G1 X90.563 Y117.382 E10.75249
G1 X90.319 Y116.429 E10.84546
G1 X89.992 Y114.715 E11.01035
G1 X89.867 Y113.731 E11.10409
G1 X89.76 Y112.022 E11.2659
G1 X89.769 Y112.021 E11.26676
G1 X89.742 Y111.519 E11.31427
G1 X89.757 Y111.009 E11.36248
G1 X89.864 Y109.298 E11.52449
G1 X89.894 Y108.951 E11.5574
G1 X89.992 Y108.285 E11.62102
G1 X90.319 Y106.571 E11.78591
G1 X90.563 Y105.618 E11.87887
G1 X91.1 Y103.962 E12.04339
G1 X91.465 Y103.04 E12.1371
G1 X92.207 Y101.462 E12.30188
G1 X92.687 Y100.588 E12.39611
G1 X93.624 Y99.114 E12.56116
G1 X94.201 Y98.32 E12.65392
G1 X95.31 Y96.979 E12.81836
G1 X95.989 Y96.256 E12.91209
G0 F4500 X96.229 Y96.512
G1 F1800 X97.502 Y95.317 E13.07709
G1 X98.226 Y94.717 E13.16595
G1 X99.634 Y93.693 E13.33047
G1 X100.439 Y93.183 E13.42053
G1 X101.969 Y92.343 E13.58547
G1 X102.819 Y91.943 E13.67424
G1 X104.44 Y91.301 E13.83901
G1 X105.335 Y91.01 E13.92794
G1 X107.021 Y90.576 E14.09246
G1 X107.957 Y90.397 E14.18252
G1 X109.689 Y90.179 E14.34748
G1 X110.629 Y90.12 E14.43649
G1 X112.371 Y90.12 E14.60111
G1 X113.311 Y90.179 E14.69011
G1 X115.043 Y90.397 E14.85508
G1 X115.979 Y90.576 E14.94513
G1 X117.665 Y91.01 E15.10965
G1 X118.56 Y91.301 E15.19859
G1 X120.181 Y91.943 E15.36335
G1 X121.031 Y92.343 E15.45212
G1 X122.561 Y93.183 E15.61707
G1 X123.366 Y93.693 E15.70712
G1 X124.774 Y94.717 E15.87164
G1 X125.498 Y95.317 E15.9605
G1 X126.771 Y96.512 E16.1255
G1 X127.42 Y97.202 E16.21502
G1 X128.529 Y98.543 E16.37946
G1 X129.08 Y99.301 E16.46802
G1 X130.016 Y100.773 E16.63286
G1 X130.475 Y101.607 E16.72282
G1 X131.217 Y103.184 E16.88752
G1 X131.566 Y104.067 E16.97725
G1 X132.104 Y105.726 E17.14206
G1 X132.338 Y106.637 E17.23094
G1 X132.665 Y108.351 E17.39584
G1 X132.783 Y109.291 E17.48537
G1 X132.89 Y111 E17.64718
G1 X132.893 Y111.969 E17.73875
G1 X132.786 Y113.68 E17.90076
G1 X132.758 Y114.013 E17.93234
G1 X132.665 Y114.649 E17.99308
G1 X132.338 Y116.363 E18.15797
G1 X132.104 Y117.274 E18.24686
G1 X131.567 Y118.93 E18.41137
G1 X131.219 Y119.811 E18.50089
G1 X130.477 Y121.389 E18.66567
G1 X130.018 Y122.224 E18.75571
G1 X129.081 Y123.698 E18.92077
G1 X128.529 Y124.457 E19.00946
G1 X127.42 Y125.798 E19.1739
G1 X126.771 Y126.488 E19.26342
G1 X125.498 Y127.683 E19.42842
G1 X124.774 Y128.283 E19.51728
G1 X123.366 Y129.307 E19.6818
G1 X122.561 Y129.817 E19.77185
G1 X121.031 Y130.657 E19.9368
G1 X120.181 Y131.057 E20.02557
G1 X118.56 Y131.699 E20.19033
G1 X117.665 Y131.99 E20.27927
G1 X115.979 Y132.424 E20.44379
G1 X115.043 Y132.603 E20.53384
G1 X113.311 Y132.821 E20.69881
G1 X112.371 Y132.88 E20.78781
G1 X110.629 Y132.88 E20.95243
G1 X109.689 Y132.821 E21.04144
G1 X107.957 Y132.603 E21.2064
G1 X107.021 Y132.424 E21.29646
G1 X105.335 Y131.99 E21.46098
G1 X104.44 Y131.699 E21.54991
G1 X102.819 Y131.057 E21.71468
G1 X101.969 Y130.657 E21.80345
G1 X100.439 Y129.817 E21.96839
G1 X99.634 Y129.307 E22.05845
G1 X98.226 Y128.283 E22.22297
G1 X97.502 Y127.683 E22.31183
G1 X96.229 Y126.488 E22.47683
G1 X95.58 Y125.798 E22.56634
G1 X94.471 Y124.457 E22.73079
G1 X93.919 Y123.698 E22.81948
G1 X92.982 Y122.224 E22.98453
G1 X92.523 Y121.389 E23.07457
G1 X91.781 Y119.811 E23.23936
G1 X91.433 Y118.93 E23.32887
G1 X90.896 Y117.274 E23.49339
G1 X90.662 Y116.363 E23.58227
G1 X90.335 Y114.649 E23.74717
G1 X90.217 Y113.709 E23.83669
G1 X90.11 Y112 E23.99851
G1 X90.107 Y111.031 E24.09008
G1 X90.214 Y109.32 E24.25209
G1 X90.242 Y108.987 E24.28367
G1 X90.335 Y108.351 E24.34441
G1 X90.662 Y106.637 E24.5093
G1 X90.896 Y105.726 E24.59818
G1 X91.433 Y104.07 E24.7627
G1 X91.781 Y103.189 E24.85221
G1 X92.523 Y101.611 E25.017
G1 X92.982 Y100.776 E25.10704
G1 X93.919 Y99.302 E25.2721
G1 X94.471 Y98.543 E25.36078
G1 X95.58 Y97.202 E25.52523
G1 X96.229 Y96.512 E25.61475
G0 F4500 X96.468 Y96.767
G1 F1800 X97.741 Y95.572 E25.77974
G1 X98.432 Y95 E25.86451
G1 X99.84 Y93.976 E26.02904
G1 X100.607 Y93.49 E26.11484
G1 X102.137 Y92.65 E26.27979
G1 X102.948 Y92.268 E26.3645
G1 X104.569 Y91.626 E26.52926
G1 X105.422 Y91.349 E26.61401
G1 X107.108 Y90.915 E26.77854
G1 X108.001 Y90.744 E26.86446
G1 X109.733 Y90.526 E27.02942
G1 X110.629 Y90.47 E27.11426
G1 X112.371 Y90.47 E27.27888
G1 X113.267 Y90.526 E27.36372
G1 X114.999 Y90.744 E27.52868
G1 X115.892 Y90.915 E27.6146
G1 X117.578 Y91.349 E27.77912
G1 X118.431 Y91.626 E27.86388
G1 X120.052 Y92.268 E28.02864
G1 X120.863 Y92.65 E28.11335
G1 X122.393 Y93.49 E28.2783
G1 X123.16 Y93.976 E28.3641
G1 X124.568 Y95 E28.52863
G1 X125.259 Y95.572 E28.6134
G1 X126.532 Y96.767 E28.77839
G1 X127.15 Y97.425 E28.8637
G1 X128.259 Y98.766 E29.02815
G1 X128.785 Y99.489 E29.11264
G1 X129.721 Y100.961 E29.27748
G1 X130.158 Y101.756 E29.36321
G1 X130.9 Y103.333 E29.52791
G1 X131.233 Y104.175 E29.61348
G1 X131.771 Y105.834 E29.77829
G1 X131.994 Y106.702 E29.86298
G1 X132.321 Y108.416 E30.02787
G1 X132.434 Y109.313 E30.11331
G1 X132.541 Y111.022 E30.27513
G1 X132.544 Y111.947 E30.36254
G1 X132.437 Y113.658 E30.52454
G1 X132.41 Y113.977 E30.5548
G1 X132.321 Y114.584 E30.61277
G1 X131.994 Y116.298 E30.77767
G1 X131.771 Y117.166 E30.86236
G1 X131.234 Y118.822 E31.02687
G1 X130.902 Y119.662 E31.11223
G1 X130.16 Y121.24 E31.27701
G1 X129.722 Y122.036 E31.36287
G1 X128.785 Y123.51 E31.52792
G1 X128.259 Y124.234 E31.61249
G1 X127.15 Y125.575 E31.77694
G1 X126.532 Y126.233 E31.86224
G1 X125.259 Y127.428 E32.02724
G1 X124.568 Y128 E32.11201
G1 X123.16 Y129.024 E32.27653
G1 X122.393 Y129.51 E32.36234
G1 X120.863 Y130.35 E32.52728
G1 X120.052 Y130.732 E32.612
G1 X118.431 Y131.374 E32.77676
G1 X117.578 Y131.651 E32.86151
G1 X115.892 Y132.085 E33.02603
G1 X114.999 Y132.256 E33.11195
G1 X113.267 Y132.474 E33.27692
G1 X112.371 Y132.53 E33.36176
G1 X110.629 Y132.53 E33.52638
G1 X109.733 Y132.474 E33.61121
G1 X108.001 Y132.256 E33.77618
G1 X107.108 Y132.085 E33.8621
G1 X105.422 Y131.651 E34.02662
G1 X104.569 Y131.374 E34.11137
G1 X102.948 Y130.732 E34.27613
G1 X102.137 Y130.35 E34.36085
G1 X100.607 Y129.51 E34.52579
G1 X99.84 Y129.024 E34.6116
G1 X98.432 Y128 E34.77612
G1 X97.741 Y127.428 E34.86089
G1 X96.468 Y126.233 E35.02589
G1 X95.85 Y125.575 E35.1112
G1 X94.741 Y124.234 E35.27564
G1 X94.215 Y123.51 E35.36021
G1 X93.278 Y122.036 E35.52527
G1 X92.84 Y121.24 E35.61112
G1 X92.098 Y119.662 E35.77591
G1 X91.766 Y118.822 E35.86126
G1 X91.229 Y117.166 E36.02578
G1 X91.006 Y116.298 E36.11047
G1 X90.679 Y114.584 E36.27536
G1 X90.566 Y113.687 E36.3608
G1 X90.459 Y111.978 E36.52261
G1 X90.456 Y111.053 E36.61003
G1 X90.563 Y109.342 E36.77203
G1 X90.59 Y109.023 E36.80229
G1 X90.679 Y108.416 E36.86026
G1 X91.006 Y106.702 E37.02515
G1 X91.229 Y105.834 E37.10984
G1 X91.766 Y104.178 E37.27436
G1 X92.098 Y103.338 E37.35971
G1 X92.84 Y101.76 E37.5245
G1 X93.278 Y100.964 E37.61036
G1 X94.215 Y99.49 E37.77541
G1 X94.741 Y98.766 E37.85998
G1 X95.85 Y97.425 E38.02442
G1 X96.468 Y96.767 E38.10973
G0 F4500 X96.708 Y97.022
G1 F1800 X97.981 Y95.827 E38.27473
G1 X98.638 Y95.283 E38.35534
G1 X100.046 Y94.259 E38.51986
G1 X100.775 Y93.796 E38.60147
G1 X102.305 Y92.956 E38.76641
G1 X103.077 Y92.594 E38.84699
G1 X104.698 Y91.952 E39.01175
G1 X105.51 Y91.687 E39.09247
G1 X107.196 Y91.253 E39.25699
G1 X108.045 Y91.091 E39.33866
G1 X109.777 Y90.873 E39.50363
G1 X110.629 Y90.82 E39.5843
G1 X112.371 Y90.82 E39.74892
G1 X113.223 Y90.873 E39.82959
G1 X114.955 Y91.091 E39.99455
G1 X115.804 Y91.253 E40.07623
G1 X117.49 Y91.687 E40.24075
G1 X118.302 Y91.952 E40.32147
G1 X119.923 Y92.594 E40.48623
G1 X120.695 Y92.956 E40.56681
G1 X122.225 Y93.796 E40.73175
G1 X122.954 Y94.259 E40.81336
G1 X124.362 Y95.283 E40.97788
G1 X125.019 Y95.827 E41.05849
G1 X126.292 Y97.022 E41.22349
G1 X126.88 Y97.648 E41.30465
G1 X127.989 Y98.989 E41.4691
G1 X128.489 Y99.677 E41.54947
G1 X129.425 Y101.149 E41.71431
G1 X129.842 Y101.905 E41.7959
G1 X130.584 Y103.482 E41.9606
G1 X130.9 Y104.283 E42.04197
G1 X131.438 Y105.942 E42.20678
G1 X131.65 Y106.768 E42.28737
G1 X131.977 Y108.482 E42.45227
G1 X132.085 Y109.335 E42.53352
G1 X132.192 Y111.044 E42.69533
G1 X132.195 Y111.925 E42.77859
G1 X132.088 Y113.636 E42.94059
G1 X132.062 Y113.941 E42.96952
G1 X131.977 Y114.518 E43.02464
G1 X131.65 Y116.232 E43.18953
G1 X131.438 Y117.058 E43.27012
G1 X130.901 Y118.714 E43.43463
G1 X130.585 Y119.513 E43.51583
G1 X129.843 Y121.091 E43.68061
G1 X129.427 Y121.848 E43.76224
G1 X128.49 Y123.322 E43.92729
G1 X127.989 Y124.011 E44.0078
G1 X126.88 Y125.352 E44.17224
G1 X126.292 Y125.978 E44.2534
G1 X125.019 Y127.173 E44.4184
G1 X124.362 Y127.717 E44.49901
G1 X122.954 Y128.741 E44.66353
G1 X122.225 Y129.204 E44.74514
G1 X120.695 Y130.044 E44.91009
G1 X119.923 Y130.406 E44.99066
G1 X118.302 Y131.048 E45.15542
G1 X117.49 Y131.313 E45.23614
G1 X115.804 Y131.747 E45.40066
G1 X114.955 Y131.909 E45.48234
G1 X113.223 Y132.127 E45.6473
G1 X112.371 Y132.18 E45.72797
G1 X110.629 Y132.18 E45.89259
G1 X109.777 Y132.127 E45.97326
G1 X108.045 Y131.909 E46.13823
G1 X107.196 Y131.747 E46.21991
G1 X105.51 Y131.313 E46.38443
G1 X104.698 Y131.048 E46.46514
G1 X103.077 Y130.406 E46.62991
G1 X102.305 Y130.044 E46.71048
G1 X100.775 Y129.204 E46.87542
G1 X100.046 Y128.741 E46.95703
G1 X98.638 Y127.717 E47.12156
G1 X97.981 Y127.173 E47.20216
G1 X96.708 Y125.978 E47.36716
G1 X96.12 Y125.352 E47.44832
G1 X95.011 Y124.011 E47.61277
G1 X94.51 Y123.322 E47.69327
G1 X93.573 Y121.848 E47.85833
G1 X93.157 Y121.091 E47.93995
G1 X92.415 Y119.513 E48.10474
G1 X92.099 Y118.714 E48.18593
G1 X91.562 Y117.058 E48.35045
G1 X91.35 Y116.232 E48.43104
G1 X91.023 Y114.518 E48.59593
G1 X90.915 Y113.665 E48.67718
G1 X90.808 Y111.956 E48.839
G1 X90.805 Y111.075 E48.92225
G1 X90.912 Y109.364 E49.08426
G1 X90.938 Y109.059 E49.11319
G1 X91.023 Y108.482 E49.1683
G1 X91.35 Y106.768 E49.3332
G1 X91.562 Y105.942 E49.41378
G1 X92.099 Y104.286 E49.5783
G1 X92.415 Y103.487 E49.65949
G1 X93.157 Y101.909 E49.82428
G1 X93.573 Y101.152 E49.9059
G1 X94.51 Y99.678 E50.07096
G1 X95.011 Y98.989 E50.15146
G1 X96.12 Y97.648 E50.31591
G1 X96.708 Y97.022 E50.39707
G0 F4500 X96.947 Y97.277
G1 F1800 X98.22 Y96.082 E50.56207
G1 X98.844 Y95.566 E50.63858
G1 X100.252 Y94.542 E50.80311
G1 X100.944 Y94.103 E50.88055
G1 X102.474 Y93.263 E51.04549
G1 X103.206 Y92.919 E51.12192
G1 X104.827 Y92.277 E51.28669
G1 X105.597 Y92.026 E51.36322
G1 X107.283 Y91.592 E51.52774
G1 X108.088 Y91.439 E51.60517
G1 X109.82 Y91.221 E51.77014
G1 X110.629 Y91.17 E51.84674
G1 X112.371 Y91.17 E52.01136
G1 X113.18 Y91.221 E52.08796
G1 X114.912 Y91.439 E52.25293
G1 X115.717 Y91.592 E52.33036
G1 X117.403 Y92.026 E52.49488
G1 X118.173 Y92.277 E52.57142
G1 X119.794 Y92.919 E52.73618
G1 X120.526 Y93.263 E52.81261
G1 X122.056 Y94.103 E52.97755
G1 X122.748 Y94.542 E53.055
G1 X124.156 Y95.566 E53.21952
G1 X124.78 Y96.082 E53.29604
G1 X126.053 Y97.277 E53.46104
G1 X126.611 Y97.872 E53.53812
G1 X127.72 Y99.213 E53.70257
G1 X128.194 Y99.865 E53.77874
G1 X129.13 Y101.337 E53.94359
G1 X129.525 Y102.054 E54.02094
G1 X130.267 Y103.631 E54.18564
G1 X130.567 Y104.391 E54.26285
G1 X131.105 Y106.05 E54.42767
G1 X131.306 Y106.834 E54.50415
G1 X131.633 Y108.548 E54.66905
G1 X131.735 Y109.356 E54.74601
G1 X131.842 Y111.065 E54.90783
G1 X131.829 Y111.066 E54.90906
G1 X131.845 Y111.903 E54.98817
G1 X131.738 Y113.614 E55.15017
G1 X131.714 Y113.905 E55.17777
G1 X131.633 Y114.452 E55.23002
G1 X131.306 Y116.166 E55.39492
G1 X131.105 Y116.95 E55.4714
G1 X130.568 Y118.606 E55.63591
G1 X130.269 Y119.364 E55.71292
G1 X129.527 Y120.942 E55.8777
G1 X129.131 Y121.661 E55.95527
G1 X128.194 Y123.135 E56.12032
G1 X127.72 Y123.787 E56.1965
G1 X126.611 Y125.128 E56.36095
G1 X126.053 Y125.723 E56.43803
G1 X124.78 Y126.918 E56.60303
G1 X124.156 Y127.434 E56.67955
G1 X122.748 Y128.458 E56.84407
G1 X122.056 Y128.897 E56.92151
G1 X120.526 Y129.737 E57.08645
G1 X119.794 Y130.081 E57.16289
G1 X118.173 Y130.723 E57.32765
G1 X117.403 Y130.974 E57.40418
G1 X115.717 Y131.408 E57.5687
G1 X114.912 Y131.561 E57.64614
G1 X113.18 Y131.779 E57.8111
G1 X112.371 Y131.83 E57.8877
G1 X110.629 Y131.83 E58.05232
G1 X109.82 Y131.779 E58.12893
G1 X108.088 Y131.561 E58.29389
G1 X107.283 Y131.408 E58.37133
G1 X105.597 Y130.974 E58.53585
G1 X104.827 Y130.723 E58.61238
G1 X103.206 Y130.081 E58.77714
G1 X102.474 Y129.737 E58.85357
G1 X100.944 Y128.897 E59.01851
G1 X100.252 Y128.458 E59.09596
G1 X98.844 Y127.434 E59.26048
G1 X98.22 Y126.918 E59.337
G1 X96.947 Y125.723 E59.502
G1 X96.389 Y125.128 E59.57908
G1 X95.28 Y123.787 E59.74353
G1 X94.806 Y123.135 E59.8197
G1 X93.869 Y121.661 E59.98476
G1 X93.473 Y120.942 E60.06233
G1 X92.731 Y119.364 E60.22711
G1 X92.432 Y118.606 E60.30411
G1 X91.895 Y116.95 E60.46863
G1 X91.694 Y116.166 E60.54511
G1 X91.367 Y114.452 E60.71001
G1 X91.265 Y113.644 E60.78697
G1 X91.158 Y111.935 E60.94878
G1 X91.171 Y111.934 E60.95002
G1 X91.155 Y111.097 E61.02913
